src/assets/svg/investment-12.svg

<svg width="36" height="40" viewBox="0 0 36 40" fill="none" xmlns="http://www.w3.org/2000/svg">
<path d="M7.22019 2.58255C7.46415 2.29138 7.58423 1.91617 7.55464 1.53746C7.52505 1.15874 7.34816 0.806731 7.06194 0.556983C6.77572 0.307235 6.40298 0.179663 6.02375 0.201655C5.64453 0.223646 5.28904 0.393448 5.0336 0.674607L2.53354 3.53846C1.11589 5.16305 0.314508 7.23432 0.269542 9.39001L0.159245 14.6514C0.155307 14.842 0.188945 15.0315 0.258239 15.209C0.327534 15.3866 0.431128 15.5488 0.563106 15.6864C0.695085 15.8239 0.852863 15.9341 1.02743 16.0107C1.202 16.0873 1.38995 16.1287 1.58053 16.1326C1.77111 16.1366 1.96061 16.1029 2.13819 16.0337C2.31578 15.9644 2.47797 15.8608 2.61552 15.7288C2.75307 15.5968 2.86328 15.439 2.93985 15.2645C3.01642 15.0899 3.05786 14.9019 3.0618 14.7114L3.17016 9.45193C3.20121 7.97691 3.74985 6.55975 4.72013 5.44834L7.22019 2.58255Z" fill="#00C700"/>
<path fill-rule="evenodd" clip-rule="evenodd" d="M6.84872 12.8129C6.97867 10.7427 7.8927 8.7998 9.40475 7.37979C10.9168 5.95977 12.9132 5.16938 14.9875 5.16952H16.0653V3.71824C16.0653 3.20504 16.2692 2.71285 16.6321 2.34996C16.9949 1.98707 17.4871 1.7832 18.0003 1.7832C18.5135 1.7832 19.0057 1.98707 19.3686 2.34996C19.7315 2.71285 19.9354 3.20504 19.9354 3.71824V5.16952H21.0132C23.0875 5.16938 25.0839 5.95977 26.5959 7.37979C28.108 8.7998 29.022 10.7427 29.1519 12.8129L29.5796 19.6513C29.7449 22.2582 30.6202 24.7703 32.1106 26.9155C32.419 27.3587 32.6074 27.8742 32.6576 28.4118C32.7077 28.9495 32.6179 29.4909 32.3968 29.9836C32.1757 30.4762 31.8309 30.9032 31.3959 31.2231C30.9609 31.543 30.4505 31.7449 29.9143 31.8092L23.3217 32.5987V34.6788C23.3217 36.0901 22.761 37.4436 21.7631 38.4416C20.7651 39.4395 19.4116 40.0002 18.0003 40.0002C16.589 40.0002 15.2355 39.4395 14.2376 38.4416C13.2396 37.4436 12.679 36.0901 12.679 34.6788V32.5987L6.08631 31.8072C5.55049 31.7428 5.04044 31.5409 4.60571 31.2211C4.17098 30.9013 3.82635 30.4745 3.60531 29.9822C3.38426 29.4899 3.29432 28.9487 3.34421 28.4114C3.3941 27.874 3.58214 27.3587 3.89004 26.9155C5.3805 24.7703 6.25576 22.2582 6.42107 19.6513L6.84872 12.8129ZM14.9875 8.07207C13.6515 8.07191 12.3656 8.58093 11.3918 9.4955C10.4179 10.4101 9.82915 11.6614 9.74547 12.9948L9.31976 19.8332C9.1208 22.9694 8.06752 25.9914 6.27401 28.5718C6.2517 28.6039 6.23805 28.6412 6.23441 28.6801C6.23077 28.719 6.23725 28.7581 6.25322 28.7938C6.26919 28.8294 6.29411 28.8603 6.32556 28.8835C6.357 28.9066 6.39391 28.9213 6.43268 28.926L13.6639 29.7948C16.5452 30.1392 19.4555 30.1392 22.3367 29.7948L29.568 28.926C29.6068 28.9213 29.6437 28.9066 29.6751 28.8835C29.7066 28.8603 29.7315 28.8294 29.7474 28.7938C29.7634 28.7581 29.7699 28.719 29.7662 28.6801C29.7626 28.6412 29.749 28.6039 29.7267 28.5718C27.9338 25.9912 26.8812 22.9692 26.6828 19.8332L26.2552 12.9948C26.1715 11.6614 25.5828 10.4101 24.6089 9.4955C23.635 8.58093 22.3492 8.07191 21.0132 8.07207H14.9875ZM18.0003 37.0976C16.6652 37.0976 15.5815 36.014 15.5815 34.6788V33.2275H20.4191V34.6788C20.4191 36.014 19.3355 37.0976 18.0003 37.0976Z" fill="#00C700"/>
<path d="M28.9188 0.535308C28.6289 0.78836 28.4514 1.14618 28.4252 1.5301C28.3991 1.91401 28.5265 2.29258 28.7794 2.58258L31.2795 5.44643C32.2495 6.55862 32.7975 7.97651 32.8275 9.45195L32.9378 14.7095C32.9458 15.0944 33.1063 15.4603 33.3841 15.7269C33.6619 15.9934 34.0342 16.1387 34.4191 16.1307C34.804 16.1228 35.17 15.9623 35.4365 15.6845C35.7031 15.4067 35.8483 15.0344 35.8404 14.6495L35.7301 9.39003C35.6851 7.23435 34.8837 5.16308 33.4661 3.53848L30.966 0.67463C30.713 0.384739 30.3552 0.207213 29.9713 0.181086C29.5873 0.15496 29.2088 0.282372 28.9188 0.535308Z" fill="#00C700"/>
</svg>

<svg xmlns="http://www.w3.org/2000/svg" width="36" height="40" fill="none"><path fill="#00C700" d="M7.22 2.583A1.451 1.451 0 0 0 5.034.675l-2.5 2.863A9.2 9.2 0 0 0 .27 9.39l-.11 5.261a1.451 1.451 0 1 0 2.902.06l.108-5.26a6.3 6.3 0 0 1 1.55-4.003z"/><path fill="#00C700" fill-rule="evenodd" d="M6.849 12.813a8.154 8.154 0 0 1 8.139-7.643h1.077V3.718a1.935 1.935 0 0 1 3.87 0V5.17h1.078a8.154 8.154 0 0 1 8.139 7.643l.428 6.838a14.3 14.3 0 0 0 2.53 7.265 3.13 3.13 0 0 1-2.196 4.893l-6.592.79v2.08a5.322 5.322 0 0 1-10.643 0v-2.08l-6.593-.792a3.13 3.13 0 0 1-2.196-4.891 14.3 14.3 0 0 0 2.531-7.265zm8.139-4.74a5.25 5.25 0 0 0-5.243 4.922l-.425 6.838a17.2 17.2 0 0 1-3.046 8.739.227.227 0 0 0 .159.354l7.23.869a36.5 36.5 0 0 0 8.674 0l7.231-.869a.227.227 0 0 0 .159-.354 17.2 17.2 0 0 1-3.044-8.739l-.428-6.838a5.25 5.25 0 0 0-5.242-4.923zM18 37.097a2.42 2.42 0 0 1-2.418-2.42v-1.45h4.837v1.45A2.42 2.42 0 0 1 18 37.099" clip-rule="evenodd"/><path fill="#00C700" d="M28.919.535a1.45 1.45 0 0 0-.14 2.048l2.5 2.863a6.3 6.3 0 0 1 1.549 4.006l.11 5.258a1.452 1.452 0 0 0 2.902-.06l-.11-5.26a9.2 9.2 0 0 0-2.264-5.852l-2.5-2.863a1.45 1.45 0 0 0-2.047-.14"/></svg>
